X: 165
T: Galway Races
M:6/8
R:jig
L:1/8
Z:added by Alf warnock alf0@rogers.com
K:G
d|"G"d2d d2e|d2B B2A|B2d d2e|d2d B2A|
"Em"B2d e2f|g3 f2e|"D"d2e f2a|"G"g2g g2a|
b2b a2g|"D"a2a g2f|"Em"e2g f2e|"G"d2B3A|
B2d d2e|d2B B2A|"Em"B2d e2f|e2e
%%text Intro and chorus
g2a|"G"b3 a2g|"D"a3 g2f|"Em"eee e2d|e6-|e4 z:|

